X:113
T:Tartan Plaid. RH.113
R:Reel
S:Rev.R.Harrison’s MS,c1815,Cumbria
O:England
A:Temple Sowerby,Cumbria
Z:vmp.Simon Wilson. Review PJH, 2008.
M:C|
L:1/8
Q:1/2=70
K:C
gc (a/g/f/e/) gc (a/g/f/e/)|gc (a/g/f/e/) fddf|\
gc (a/g/f/e/) gc (a/g/f/e/)|fagf ecc2:|!
|:GcEc Gcec|GcEc dDDc|GcEc Gcec|eagf ecc2:|

